X: 32608
T: Planxty Sweeney
R: waltz
M: 3/4
K: Gmajor
G2 E3 D|E2G4|D2E3 D|E2G4|B2d3c|
B2 A2G2|1 A2B2A2|G2A4:|2 A2B2G2|G2G4||
|:B3cd2|e4e2|d4c2|B3AG2|
A3^FD2|A3Bc2|d3cB2|A4G2|
E3DE2|G4D2|E3DE2|G4B2|
d3cB2|A2G2A2|B2G2G2|G6:|

